portal/assets/img/component/radio-button/anatomy-radio-button-1.svg

<svg width="176" height="83" viewBox="0 0 176 83" fill="none" xmlns="http://www.w3.org/2000/svg">
<circle cx="164" cy="67" r="12" fill="#344054"/>
<path d="M159.943 73V71.2273L164.085 67.392C164.438 67.0511 164.733 66.7443 164.972 66.4716C165.214 66.1989 165.398 65.9318 165.523 65.6705C165.648 65.4053 165.71 65.1193 165.71 64.8125C165.71 64.4716 165.633 64.178 165.477 63.9318C165.322 63.6818 165.11 63.4905 164.841 63.358C164.572 63.2216 164.267 63.1534 163.926 63.1534C163.57 63.1534 163.259 63.2254 162.994 63.3693C162.729 63.5133 162.525 63.7197 162.381 63.9886C162.237 64.2576 162.165 64.5777 162.165 64.9489H159.83C159.83 64.1875 160.002 63.5265 160.347 62.9659C160.691 62.4053 161.174 61.9716 161.795 61.6648C162.417 61.358 163.133 61.2045 163.943 61.2045C164.777 61.2045 165.502 61.3523 166.119 61.6477C166.741 61.9394 167.223 62.3447 167.568 62.8636C167.913 63.3826 168.085 63.9773 168.085 64.6477C168.085 65.0871 167.998 65.5208 167.824 65.9489C167.653 66.3769 167.348 66.8523 166.909 67.375C166.47 67.8939 165.85 68.517 165.051 69.2443L163.352 70.9091V70.9886H168.239V73H159.943Z" fill="white"/>
<path d="M155 67L103 67.5" stroke="#344054" stroke-dasharray="2 2"/>
<circle cx="59" cy="16" r="12" fill="#344054"/>
<path d="M61.0057 10.3636V22H58.5455V12.6989H58.4773L55.8125 14.3693V12.1875L58.6932 10.3636H61.0057Z" fill="white"/>
<path d="M56 16H12V58" stroke="#344054" stroke-dasharray="2 2"/>
<circle cx="12" cy="67" r="11.5" fill="white" stroke="#667085"/>
<circle cx="11.9999" cy="66.9999" r="4" fill="white"/>
<path d="M51.2273 67.1818C51.2273 68.4091 51.0057 69.4697 50.5625 70.3636C50.1193 71.2576 49.5114 71.947 48.7386 72.4318C47.9659 72.9167 47.0833 73.1591 46.0909 73.1591C45.0985 73.1591 44.2159 72.9167 43.4432 72.4318C42.6705 71.947 42.0625 71.2576 41.6193 70.3636C41.1761 69.4697 40.9545 68.4091 40.9545 67.1818C40.9545 65.9545 41.1761 64.8939 41.6193 64C42.0625 63.1061 42.6705 62.4167 43.4432 61.9318C44.2159 61.447 45.0985 61.2045 46.0909 61.2045C47.0833 61.2045 47.9659 61.447 48.7386 61.9318C49.5114 62.4167 50.1193 63.1061 50.5625 64C51.0057 64.8939 51.2273 65.9545 51.2273 67.1818ZM49.8636 67.1818C49.8636 66.1742 49.6951 65.3239 49.358 64.6307C49.0246 63.9375 48.572 63.4129 48 63.0568C47.4318 62.7008 46.7955 62.5227 46.0909 62.5227C45.3864 62.5227 44.7481 62.7008 44.1761 63.0568C43.608 63.4129 43.1553 63.9375 42.8182 64.6307C42.4848 65.3239 42.3182 66.1742 42.3182 67.1818C42.3182 68.1894 42.4848 69.0398 42.8182 69.733C43.1553 70.4261 43.608 70.9508 44.1761 71.3068C44.7481 71.6629 45.3864 71.8409 46.0909 71.8409C46.7955 71.8409 47.4318 71.6629 48 71.3068C48.572 70.9508 49.0246 70.4261 49.358 69.733C49.6951 69.0398 49.8636 68.1894 49.8636 67.1818ZM53.4148 76.2727V64.2727H54.7102V65.6591H54.8693C54.9678 65.5076 55.1042 65.3144 55.2784 65.0795C55.4564 64.8409 55.7102 64.6288 56.0398 64.4432C56.3731 64.2538 56.8239 64.1591 57.392 64.1591C58.1269 64.1591 58.7746 64.3428 59.3352 64.7102C59.8958 65.0777 60.3333 65.5985 60.6477 66.2727C60.9621 66.947 61.1193 67.7424 61.1193 68.6591C61.1193 69.5833 60.9621 70.3845 60.6477 71.0625C60.3333 71.7367 59.8977 72.2595 59.3409 72.6307C58.7841 72.9981 58.142 73.1818 57.4148 73.1818C56.8542 73.1818 56.4053 73.089 56.0682 72.9034C55.7311 72.714 55.4716 72.5 55.2898 72.2614C55.108 72.0189 54.9678 71.8182 54.8693 71.6591H54.7557V76.2727H53.4148ZM54.733 68.6364C54.733 69.2955 54.8295 69.8769 55.0227 70.3807C55.2159 70.8807 55.4981 71.2727 55.8693 71.5568C56.2405 71.8371 56.6951 71.9773 57.233 71.9773C57.7936 71.9773 58.2614 71.8295 58.6364 71.5341C59.0152 71.2348 59.2992 70.8333 59.4886 70.3295C59.6818 69.822 59.7784 69.2576 59.7784 68.6364C59.7784 68.0227 59.6837 67.4697 59.4943 66.9773C59.3087 66.4811 59.0265 66.089 58.6477 65.8011C58.2727 65.5095 57.8011 65.3636 57.233 65.3636C56.6875 65.3636 56.2292 65.5019 55.858 65.7784C55.4867 66.0511 55.2064 66.4337 55.017 66.9261C54.8277 67.4148 54.733 67.9848 54.733 68.6364ZM66.9602 64.2727V65.4091H62.4375V64.2727H66.9602ZM63.7557 62.1818H65.0966V70.5C65.0966 70.8788 65.1515 71.1629 65.2614 71.3523C65.375 71.5379 65.5189 71.6629 65.6932 71.7273C65.8712 71.7879 66.0587 71.8182 66.2557 71.8182C66.4034 71.8182 66.5246 71.8106 66.6193 71.7955C66.714 71.7765 66.7898 71.7614 66.8466 71.75L67.1193 72.9545C67.0284 72.9886 66.9015 73.0227 66.7386 73.0568C66.5758 73.0947 66.3693 73.1136 66.1193 73.1136C65.7405 73.1136 65.3693 73.0322 65.0057 72.8693C64.6458 72.7064 64.3466 72.4583 64.108 72.125C63.8731 71.7917 63.7557 71.3712 63.7557 70.8636V62.1818ZM68.9773 73V64.2727H70.3182V73H68.9773ZM69.6591 62.8182C69.3977 62.8182 69.1723 62.7292 68.983 62.5511C68.7973 62.3731 68.7045 62.1591 68.7045 61.9091C68.7045 61.6591 68.7973 61.4451 68.983 61.267C69.1723 61.089 69.3977 61 69.6591 61C69.9205 61 70.1439 61.089 70.3295 61.267C70.5189 61.4451 70.6136 61.6591 70.6136 61.9091C70.6136 62.1591 70.5189 62.3731 70.3295 62.5511C70.1439 62.7292 69.9205 62.8182 69.6591 62.8182ZM76.3196 73.1818C75.5317 73.1818 74.8404 72.9943 74.2457 72.6193C73.6548 72.2443 73.1927 71.7197 72.8594 71.0455C72.5298 70.3712 72.3651 69.5833 72.3651 68.6818C72.3651 67.7727 72.5298 66.9792 72.8594 66.3011C73.1927 65.6231 73.6548 65.0966 74.2457 64.7216C74.8404 64.3466 75.5317 64.1591 76.3196 64.1591C77.1075 64.1591 77.7969 64.3466 78.3878 64.7216C78.9825 65.0966 79.4446 65.6231 79.7741 66.3011C80.1075 66.9792 80.2741 67.7727 80.2741 68.6818C80.2741 69.5833 80.1075 70.3712 79.7741 71.0455C79.4446 71.7197 78.9825 72.2443 78.3878 72.6193C77.7969 72.9943 77.1075 73.1818 76.3196 73.1818ZM76.3196 71.9773C76.9181 71.9773 77.4105 71.8239 77.7969 71.517C78.1832 71.2102 78.4692 70.8068 78.6548 70.3068C78.8404 69.8068 78.9332 69.2652 78.9332 68.6818C78.9332 68.0985 78.8404 67.5549 78.6548 67.0511C78.4692 66.5473 78.1832 66.1402 77.7969 65.8295C77.4105 65.5189 76.9181 65.3636 76.3196 65.3636C75.7211 65.3636 75.2287 65.5189 74.8423 65.8295C74.456 66.1402 74.17 66.5473 73.9844 67.0511C73.7988 67.5549 73.706 68.0985 73.706 68.6818C73.706 69.2652 73.7988 69.8068 73.9844 70.3068C74.17 70.8068 74.456 71.2102 74.8423 71.517C75.2287 71.8239 75.7211 71.9773 76.3196 71.9773ZM83.6619 67.75V73H82.321V64.2727H83.6165V65.6364H83.7301C83.9347 65.1932 84.2453 64.8371 84.6619 64.5682C85.0786 64.2955 85.6165 64.1591 86.2756 64.1591C86.8665 64.1591 87.3835 64.2803 87.8267 64.5227C88.2699 64.7614 88.6146 65.125 88.8608 65.6136C89.107 66.0985 89.2301 66.7121 89.2301 67.4545V73H87.8892V67.5455C87.8892 66.8598 87.7112 66.3258 87.3551 65.9432C86.9991 65.5568 86.5104 65.3636 85.8892 65.3636C85.4612 65.3636 85.0786 65.4564 84.7415 65.642C84.4081 65.8277 84.1449 66.0985 83.9517 66.4545C83.7585 66.8106 83.6619 67.2424 83.6619 67.75ZM100.249 61.3636V73H98.8395V62.8409H98.7713L95.9304 64.7273V63.2955L98.8395 61.3636H100.249Z" fill="#344054"/>
</svg>

<svg width="176" height="83" viewBox="0 0 176 83" fill="none" xmlns="http://www.w3.org/2000/svg"><circle cx="164" cy="67" r="12" fill="#344054"/><path d="M159.943 73v-1.773l4.142-3.835c.353-.34.648-.648.887-.92.242-.273.426-.54.551-.801.125-.266.187-.552.187-.859 0-.34-.077-.634-.233-.88a1.526 1.526 0 0 0-.636-.574 1.995 1.995 0 0 0-.915-.205c-.356 0-.667.072-.932.216-.265.144-.469.35-.613.62-.144.269-.216.589-.216.96h-2.335c0-.761.172-1.422.517-1.983.344-.56.827-.994 1.448-1.301.622-.307 1.338-.46 2.148-.46.834 0 1.559.147 2.176.443.622.291 1.104.697 1.449 1.216s.517 1.113.517 1.784c0 .44-.087.873-.261 1.3-.171.429-.476.904-.915 1.427-.439.519-1.059 1.142-1.858 1.87l-1.699 1.664v.08h4.887V73h-8.296Z" fill="#fff"/><path d="m155 67-52 .5" stroke="#344054" stroke-dasharray="2 2"/><circle cx="59" cy="16" r="12" fill="#344054"/><path d="M61.006 10.364V22h-2.46v-9.301h-.069l-2.664 1.67v-2.181l2.88-1.824h2.313Z" fill="#fff"/><path d="M56 16H12v42" stroke="#344054" stroke-dasharray="2 2"/><circle cx="12" cy="67" r="11.5" fill="#fff" stroke="#667085"/><circle cx="12" cy="67" r="4" fill="#fff"/><path d="M51.227 67.182c0 1.227-.221 2.288-.664 3.182-.444.894-1.052 1.583-1.824 2.068-.773.485-1.656.727-2.648.727-.992 0-1.875-.242-2.648-.727-.773-.485-1.38-1.174-1.824-2.068-.443-.894-.664-1.955-.664-3.182 0-1.228.221-2.288.664-3.182.444-.894 1.051-1.583 1.824-2.068.773-.485 1.656-.727 2.648-.727.992 0 1.875.242 2.648.727.772.485 1.38 1.174 1.824 2.068.443.894.664 1.954.664 3.182Zm-1.363 0c0-1.008-.169-1.858-.506-2.551-.333-.694-.786-1.218-1.358-1.574a3.522 3.522 0 0 0-1.91-.534 3.55 3.55 0 0 0-1.914.534c-.568.356-1.02.88-1.358 1.574-.333.693-.5 1.543-.5 2.55 0 1.008.167 1.859.5 2.552.337.693.79 1.218 1.358 1.574a3.55 3.55 0 0 0 1.915.534A3.52 3.52 0 0 0 48 71.307c.572-.356 1.025-.88 1.358-1.574.337-.693.506-1.544.506-2.551Zm3.55 9.09v-12h1.296v1.387h.16c.098-.151.234-.345.408-.58.178-.238.432-.45.762-.636.333-.19.784-.284 1.352-.284.735 0 1.383.184 1.943.551.56.368.998.889 1.313 1.563.314.674.471 1.47.471 2.386 0 .924-.157 1.725-.471 2.403-.315.675-.75 1.198-1.307 1.569-.557.367-1.199.55-1.926.55-.56 0-1.01-.092-1.347-.278-.337-.189-.596-.403-.778-.642a8.63 8.63 0 0 1-.42-.602h-.114v4.614h-1.341Zm1.319-7.636c0 .66.097 1.24.29 1.745.193.5.475.892.846 1.176.371.28.826.42 1.364.42.56 0 1.028-.148 1.403-.443.38-.3.663-.7.853-1.205.193-.507.29-1.071.29-1.693 0-.613-.095-1.166-.285-1.659-.185-.496-.468-.888-.846-1.176-.375-.291-.847-.437-1.415-.437-.545 0-1.004.138-1.375.414-.371.273-.652.656-.841 1.148-.19.489-.284 1.059-.284 1.71Zm12.227-4.363v1.136h-4.522v-1.136h4.522Zm-3.204-2.091h1.34V70.5c0 .379.055.663.165.852.114.186.258.31.432.375.178.06.366.091.563.091a2.4 2.4 0 0 0 .363-.022l.228-.046.272 1.204c-.09.035-.218.069-.38.103a2.8 2.8 0 0 1-.62.057c-.379 0-.75-.082-1.113-.245a2.212 2.212 0 0 1-.898-.744c-.235-.333-.352-.754-.352-1.261v-8.682ZM68.977 73v-8.727h1.341V73h-1.34Zm.682-10.182a.953.953 0 0 1-.676-.267.858.858 0 0 1-.279-.642c0-.25.093-.464.279-.642a.953.953 0 0 1 .676-.267c.261 0 .485.089.67.267a.85.85 0 0 1 .285.642.85.85 0 0 1-.285.642.933.933 0 0 1-.67.267Zm6.66 10.364c-.787 0-1.479-.188-2.073-.563-.591-.375-1.053-.9-1.387-1.573-.33-.675-.494-1.463-.494-2.364 0-.91.165-1.703.494-2.38.334-.679.796-1.205 1.387-1.58.594-.375 1.286-.563 2.074-.563.788 0 1.477.188 2.068.563.594.375 1.057.901 1.386 1.58.334.677.5 1.47.5 2.38 0 .901-.166 1.69-.5 2.364a3.769 3.769 0 0 1-1.386 1.573c-.591.375-1.28.563-2.068.563Zm0-1.205c.6 0 1.091-.153 1.478-.46a2.72 2.72 0 0 0 .858-1.21c.185-.5.278-1.042.278-1.625 0-.584-.093-1.127-.278-1.63a2.75 2.75 0 0 0-.858-1.223c-.386-.31-.879-.465-1.477-.465-.599 0-1.091.155-1.478.465a2.75 2.75 0 0 0-.858 1.222 4.681 4.681 0 0 0-.278 1.63c0 .584.093 1.126.278 1.626.186.5.472.903.858 1.21.387.307.88.46 1.478.46Zm7.343-4.227V73H82.32v-8.727h1.296v1.363h.113c.205-.443.515-.799.932-1.068.417-.272.954-.409 1.614-.409.59 0 1.108.121 1.55.364.444.238.789.602 1.035 1.09.246.486.37 1.1.37 1.841V73h-1.342v-5.454c0-.686-.178-1.22-.534-1.603-.356-.386-.845-.58-1.466-.58-.428 0-.81.093-1.147.279a1.993 1.993 0 0 0-.79.813c-.194.356-.29.787-.29 1.295Zm16.587-6.386V73h-1.41V62.84h-.068l-2.84 1.887v-1.432l2.909-1.931h1.409Z" fill="#344054"/></svg>
